X:1
T:Title
%%score { ( 1 3 ) | ( 2 4 ) }
L:1/8
M:6/8
K:F
V:1 treble nm="Grand Piano"
V:3 treble 
V:2 bass 
V:4 bass 
V:1
 z3 z2[Q:1/4=90] C | A2 A _A2 A | A2 c c2 C | [EB]2 [EB] [_EA]2 [EA] |[M:5/8] [EB]2 [Ed] [Ed]2 | %5
[M:1/8] [EG] |[M:3/4] F2 A c2 [Ac] | [_Ae]2 [Ad] c2 d | e2 cG A=B | d3 [Ec]3 | A2 cc dc | c3 E2 E | %12
 z2 z [FG] z2 |[M:5/8] [^CEA]-[CEA]- [CEA]3 |[M:1/8] c |[M:3/4] c2 c [Af]2 e |[M:7/8] d3 G3 A | %17
[M:3/4] B2 B [EA]2 [EG] |[M:5/8] [CF]-[CF]- [CF]3 |] %19
V:2
 z3 z2 [F,A,] | [F,A,CF]2 [F,A,CF] [F,=B,F]2 [F,B,F] | [F,CF]2 [F,CF] [F,CF]2 [F,A,] | %3
 [C,G,]2 [C,G,] [C,^F,]2 [C,F,] |[M:5/8] [C,G,]2 [C,B,] [C,B,]2 |[M:1/8] [C,B,] | %6
[M:3/4] [F,A,]2 [F,CF] [F,A,F]2 [F,C] | [F,=B,]2 [F,B,] [F,C]3 | %8
 [G,CG]2 [G,CE][G,CE] [G,CE][G,DF] | [G,=B,F]3[K:bass] [C,C]3 | %10
 [F,A,F]2 [F,A,F][F,A,F] [F,A,F][F,A,F] | [G,B,E]3 [G,B,C]2 [C,B,] | [D,A,D]2 .[D,A,D]2 FB,, | %13
[M:5/8] A,,-A,,- A,,3 |[M:1/8] [G,B,E] |[M:3/4] [F,A,F]2 [F,A,F] [F,C]2[K:treble] [A,^CG] | %16
[M:7/8] [B,DF]3 [B,DF]3 [A,D^F] |[M:3/4] [G,DG]2 [G,DG][K:bass] [C,C]2 [C,B,] | %18
[M:5/8] [F,A,]-[F,A,]- [F,A,]3 |] %19
V:3
 x6 | x6 | x6 | x6 |[M:5/8] x5 |[M:1/8] x |[M:3/4] x6 | z2 z =A3 | x6 | x6 | x6 | x6 | %12
 F2 F D2 [DFG] |[M:5/8] x5 |[M:1/8] x |[M:3/4] x6 |[M:7/8] x7 |[M:3/4] x6 |[M:5/8] x5 |] %19
V:4
 x6 | x6 | x6 | x6 |[M:5/8] x5 |[M:1/8] x |[M:3/4] x6 | x6 | x6 | x3[K:bass] x3 | x6 | x6 | %12
 z2 z .B,,3 |[M:5/8] x5 |[M:1/8] x |[M:3/4] x5[K:treble] x |[M:7/8] x7 |[M:3/4] x3[K:bass] x3 | %18
[M:5/8] x5 |] %19

